X: 29488
T: Nightingale, The
R: jig
M: 6/8
K: Adorian
|:EAA A2B|cAd cAG|EDE GFG|GBd GFG|
EAA A2B|cAB cde|g3 e/f/ge|dBG A2:|
|:a|aea aef|gdg gdg|aea aef|gfe def|
[1aea aef|gdg gdg|g3 e/f/ge|dBG A2:|
[2g2e fed|edB GBd|g3 e/f/ge|dBG A2||

